assets/features/channel/europe-and-america/SEPA.svg

<svg width="80" height="80" viewBox="0 0 80 80" fill="none" xmlns="http://www.w3.org/2000/svg">
<rect width="80" height="80" rx="8" fill="#163381"/>
<path d="M22.2193 36.7784H17.84C17.84 36.06 17.7557 35.5779 17.5872 35.3322C17.3267 34.9692 16.6077 34.7875 15.4303 34.7873C14.2871 34.7873 13.5302 34.8919 13.1596 35.1011C12.7898 35.3113 12.6049 35.768 12.6047 36.4713C12.6047 37.1078 12.7688 37.5267 13.097 37.7281C13.3325 37.8706 13.6437 37.9544 14.0307 37.9795L14.9137 38.0417C16.8067 38.167 17.9888 38.2551 18.4599 38.3062C19.9569 38.457 21.042 38.8549 21.7153 39.4999C22.2449 40.0031 22.5604 40.6607 22.6616 41.4726C22.724 42.0192 22.7535 42.5691 22.7499 43.1193C22.7499 44.5275 22.6156 45.5582 22.3468 46.2115C21.8595 47.4105 20.7638 48.1687 19.0598 48.486C18.3456 48.6201 17.2537 48.6872 15.7841 48.6875C13.3315 48.6875 11.6226 48.5411 10.6577 48.2482C9.47351 47.8888 8.69252 47.1611 8.31467 46.065C8.10398 45.4544 7.9991 44.4377 8.00001 43.0147H12.3789V43.3787C12.3789 44.1381 12.597 44.6265 13.0331 44.8438C13.376 45.0028 13.7497 45.0841 14.1277 45.0819H15.7378C16.5593 45.0819 17.0832 45.0398 17.3097 44.9554C17.7124 44.7974 17.9768 44.5423 18.1028 44.19C18.177 43.9157 18.2109 43.6321 18.2033 43.348C18.2033 42.5784 17.9227 42.1096 17.3613 41.9419C17.1506 41.8756 16.1742 41.7836 14.432 41.6657C13.0323 41.5658 12.0603 41.4693 11.5159 41.3763C10.0822 41.1082 9.12696 40.5559 8.65009 39.7193C8.23059 39.008 8.02107 37.9321 8.02155 36.4916C8.02155 35.3955 8.1348 34.5167 8.36128 33.8551C8.58777 33.1935 8.95278 32.6911 9.45632 32.3479C10.1951 31.8203 11.1393 31.5106 12.289 31.4187C13.2463 31.3353 14.3082 31.2932 15.4747 31.2925C17.3124 31.2925 18.622 31.3976 19.4035 31.6079C21.3093 32.1198 22.2622 33.5538 22.2622 35.9098C22.2622 36.103 22.2479 36.3926 22.2195 36.7788M41.4757 48.6877V31.2002H50.2455C51.4484 31.2002 52.3655 31.2983 52.9969 31.4946C54.4393 31.9463 55.4078 32.8713 55.9025 34.2697C56.1584 35.0038 56.2864 36.1087 56.2866 37.5844C56.2866 39.3583 56.1455 40.6332 55.8635 41.409C55.301 42.9435 54.1448 43.8262 52.3948 44.0569C52.1893 44.0915 51.3144 44.1215 49.77 44.1468L48.9889 44.1728H46.1828V48.6877H41.4757ZM46.1831 40.1163H49.1177C50.048 40.0828 50.6146 40.0105 50.8175 39.8995C51.0956 39.7466 51.2825 39.4399 51.3754 38.9809C51.435 38.6755 51.4648 38.2209 51.4647 37.617C51.4647 36.8773 51.4054 36.3286 51.2868 35.971C51.1176 35.4691 50.712 35.163 50.07 35.0528C49.9428 35.0361 49.6384 35.0276 49.157 35.0271H46.1834L46.1831 40.1163ZM66.3342 45.6655H60.0407L59.195 48.6877H54.3252L59.5804 31.2002H66.6807L72 48.6877H67.2323L66.3342 45.6655ZM65.3995 42.2589L63.1938 34.6784L61.0534 42.2589H65.3995Z" fill="white"/>
<path d="M34.9792 33.6605C35.9018 33.6601 36.8128 33.8659 37.6456 34.263C38.4783 34.66 39.2118 35.2383 39.7922 35.9554L40.8068 33.7801C39.1499 32.2167 36.9562 31.3486 34.6781 31.355C30.9691 31.355 27.7963 33.5952 26.4946 36.766H24.5159L23.3474 39.2703H25.8926C25.8724 39.5037 25.8618 39.7376 25.8609 39.9721C25.861 40.2563 25.8754 40.5403 25.904 40.8231H24.6252L23.457 43.3281H26.5548C27.8938 46.4186 31.027 48.5882 34.6778 48.5882C36.4429 48.5924 38.1696 48.0728 39.6391 47.095V44.0252C39.0093 44.7451 38.2212 45.3093 37.3367 45.6735C36.4522 46.0378 35.4953 46.1922 34.5411 46.1247C33.5869 46.0571 32.6613 45.7695 31.837 45.2843C31.0126 44.7991 30.3119 44.1295 29.7897 43.3281H36.2761L37.4441 40.8231H28.8355C28.7594 40.3089 28.7471 39.7872 28.7989 39.27H38.1686L39.3365 36.766H29.6084C30.1521 35.8225 30.9348 35.0387 31.8776 34.4935C32.8204 33.9483 33.8901 33.6609 34.9793 33.6602" fill="#FFBE00"/>
<path d="M34.9795 33.7354C35.8911 33.7346 36.7912 33.9378 37.614 34.3302C38.4368 34.7225 39.1612 35.2941 39.7343 36.0029L39.8099 36.0963L39.8612 35.9873L40.8757 33.812L40.8983 33.7624L40.8593 33.7251C39.3679 32.3279 37.4474 31.4769 35.4105 31.3107C33.3736 31.1445 31.3404 31.6729 29.6423 32.8099C28.2045 33.7715 27.0848 35.1386 26.4255 36.7377L26.4949 36.6911H24.4679L24.4479 36.7342L23.2798 39.239L23.2295 39.3459H25.893L25.8181 39.2643C25.7979 39.4998 25.7874 39.7359 25.7864 39.9724C25.7864 40.2535 25.8008 40.5429 25.8295 40.8311L25.9045 40.7485H24.5781L24.5582 40.7916L23.3893 43.2964L23.3397 43.4033H26.5554L26.4865 43.358C27.8828 46.5807 31.0985 48.6633 34.6783 48.6633C36.4581 48.6681 38.1992 48.1442 39.6808 47.1582L39.7138 47.1362V43.8259L39.5825 43.9758C38.9602 44.6869 38.1817 45.2442 37.3079 45.6039C36.4341 45.9637 35.4888 46.1162 34.5462 46.0495C33.6036 45.9828 32.6893 45.6986 31.8749 45.2193C31.0605 44.7401 30.3683 44.0787 29.8524 43.287L29.7897 43.4036H36.3245L36.3445 43.3605L37.5126 40.8551L37.5629 40.7486H28.8355L28.9101 40.8132C28.8348 40.305 28.8226 39.7894 28.8738 39.2782L28.7988 39.3457H38.2169L38.2369 39.3027L39.4048 36.798L39.455 36.6911H29.6086L29.6732 36.804C30.2126 35.8737 30.9863 35.1009 31.9173 34.5625C32.8483 34.0241 33.904 33.739 34.9795 33.7354ZM29.6086 36.8413H39.3365L39.2681 36.7343L38.1006 39.239L38.1686 39.1959H28.7308L28.7236 39.2638C28.6723 39.7871 28.6848 40.3146 28.7609 40.8349L28.7709 40.8995H37.4445L37.3765 40.7923L36.2086 43.2969L36.2762 43.2538H29.6503L29.7269 43.3697C30.2556 44.1807 30.9649 44.8582 31.7992 45.3492C32.6336 45.8401 33.5704 46.1312 34.5361 46.1996C35.5018 46.268 36.4702 46.1119 37.3654 45.7434C38.2607 45.375 39.0584 44.8042 39.6962 44.0759L39.5642 44.0262V47.0961L39.5975 47.0341C38.1405 48.0033 36.4287 48.5183 34.6787 48.5139C31.1585 48.5139 27.9974 46.4665 26.625 43.2987L26.605 43.2538H23.4576L23.5262 43.3615L24.6936 40.855L24.6253 40.8989H25.9878L25.9792 40.8157C25.9509 40.5326 25.9361 40.2483 25.9361 39.9724C25.9361 39.7602 25.9468 39.5324 25.9678 39.2769L25.9745 39.1956H23.348L23.4156 39.3026L24.5838 36.7979L24.5162 36.841H26.5448L26.5637 36.7944C27.2123 35.2229 28.313 33.8794 29.7262 32.9342C31.3961 31.8167 33.3951 31.2974 35.3978 31.4608C37.4005 31.6243 39.2889 32.4609 40.7554 33.8344L40.7388 33.7478L39.7248 35.9236L39.8514 35.9076C39.2104 35.1168 38.3865 34.494 37.4508 34.0928C36.5152 33.6917 35.496 33.5243 34.4812 33.6051C33.4664 33.6859 32.4865 34.0125 31.6262 34.5567C30.7659 35.1009 30.051 35.8464 29.5433 36.7286L29.478 36.8415L29.6086 36.8413Z" fill="white"/>
</svg>

<svg xmlns="http://www.w3.org/2000/svg" width="80" height="80" fill="none" viewBox="0 0 80 80"><rect width="80" height="80" fill="#163381" rx="8"/><path fill="#fff" d="M22.22 36.778h-4.38q0-1.077-.253-1.446-.39-.544-2.157-.545-1.715 0-2.27.314-.555.315-.555 1.37 0 .956.492 1.257.354.214.934.252l.883.062q2.84.188 3.546.264 2.246.227 3.255 1.194.794.754.947 1.973.093.82.088 1.646 0 2.113-.403 3.093-.731 1.798-3.287 2.274-1.071.2-3.276.202-3.679 0-5.126-.44-1.776-.54-2.343-2.183-.317-.915-.315-3.05h4.379v.364q0 1.14.654 1.465c.343.159.717.24 1.095.238h1.61q1.231 0 1.572-.127.604-.237.793-.765c.074-.274.108-.558.1-.842q0-1.154-.842-1.406-.316-.099-2.929-.276-2.1-.15-2.916-.29-2.15-.402-2.866-1.657-.63-1.067-.628-3.227 0-1.644.34-2.637.339-.992 1.094-1.507 1.109-.791 2.833-.93 1.436-.125 3.186-.125 2.756 0 3.929.315 2.858.768 2.858 4.302 0 .29-.043.869m19.257 11.909V31.2h8.77q1.804 0 2.75.295 2.165.676 2.907 2.775.383 1.101.384 3.314 0 2.662-.423 3.825-.845 2.302-3.47 2.648-.308.052-2.624.09l-.781.026h-2.806v4.515zm4.707-8.572h2.935q1.395-.05 1.7-.216.418-.23.557-.92.09-.457.09-1.363 0-1.11-.178-1.646-.255-.753-1.217-.918-.191-.025-.913-.026h-2.974zm20.151 5.55h-6.293l-.846 3.022h-4.87L59.58 31.2h7.1L72 48.688h-4.768zm-.934-3.407-2.206-7.58-2.14 7.58z"/><path fill="#ffbe00" d="M34.98 33.66a6.19 6.19 0 0 1 4.812 2.295l1.015-2.175a8.9 8.9 0 0 0-6.129-2.425c-3.709 0-6.882 2.24-8.183 5.411h-1.98l-1.168 2.504h2.546q-.03.351-.032.702 0 .426.043.851h-1.279l-1.168 2.505h3.098c1.339 3.09 4.472 5.26 8.123 5.26a8.9 8.9 0 0 0 4.961-1.493v-3.07a6.19 6.19 0 0 1-9.85-.697h6.487l1.168-2.505h-8.609a6.3 6.3 0 0 1-.036-1.553h9.37l1.168-2.504h-9.729a6.2 6.2 0 0 1 5.371-3.106"/><path fill="#fff" d="M34.98 33.735a6.1 6.1 0 0 1 4.754 2.268l.076.093.051-.109 1.015-2.175.022-.05-.039-.037a9.046 9.046 0 0 0-11.217-.915 8.73 8.73 0 0 0-3.216 3.928l.069-.047h-2.027l-.02.043-1.168 2.505-.05.107h2.663l-.075-.082q-.03.354-.032.708 0 .424.043.86l.075-.084h-1.326l-.02.044-1.169 2.504-.05.107h3.216l-.069-.045c1.397 3.223 4.613 5.305 8.192 5.305a9 9 0 0 0 5.003-1.505l.033-.022v-3.31l-.131.15a6.117 6.117 0 0 1-9.73-.689l-.063.117h6.535l.02-.044 1.168-2.505.05-.106h-8.728l.075.064a6.2 6.2 0 0 1-.036-1.535l-.075.068h9.418l.02-.043 1.168-2.505.05-.107h-9.846l.064.113a6.16 6.16 0 0 1 5.307-3.069m-5.371 3.106h9.728l-.069-.107-1.167 2.505.068-.043H28.73l-.007.068a6.5 6.5 0 0 0 .037 1.57l.01.066h8.673l-.068-.108-1.167 2.505.067-.043H29.65l.077.116a6.27 6.27 0 0 0 9.97.706l-.133-.05v3.07l.033-.062a8.84 8.84 0 0 1-4.918 1.48c-3.52 0-6.682-2.047-8.054-5.215l-.02-.045h-3.147l.068.108 1.168-2.507-.069.044h1.363l-.009-.083a9 9 0 0 1-.043-.844c0-.212.01-.44.032-.695l.006-.081h-2.626l.068.107 1.168-2.505-.068.043h2.029l.019-.047a8.6 8.6 0 0 1 3.162-3.86 8.9 8.9 0 0 1 11.03.9l-.017-.086-1.014 2.176.126-.016a6.27 6.27 0 0 0-10.308.82l-.065.114z"/></svg>
